mobile/24/svg/tab-tray-24.svg

<svg width="24" height="24" viewBox="0 0 24 24" fill="none" xmlns="http://www.w3.org/2000/svg">
<path fill-rule="evenodd" clip-rule="evenodd" d="M2 4.5C2 3.11975 3.11975 2 4.5 2H19.5C20.8802 2 22 3.11975 22 4.5V14.5C22 15.8802 20.8802 17 19.5 17H4.5C3.11975 17 2 15.8802 2 14.5V4.5ZM4.5 3.75C4.08625 3.75 3.75 4.08625 3.75 4.5V14.5C3.75 14.9138 4.08625 15.25 4.5 15.25H19.5C19.9138 15.25 20.25 14.9138 20.25 14.5V4.5C20.25 4.08625 19.9138 3.75 19.5 3.75H4.5Z" fill="black"/>
<path fill-rule="evenodd" clip-rule="evenodd" d="M4.5 21.5C3.11975 21.5 2 20.3802 2 19H3.75C3.75 19.4138 4.08625 19.75 4.5 19.75H19.5C19.9138 19.75 20.25 19.4138 20.25 19H22C22 20.3802 20.8802 21.5 19.5 21.5H4.5Z" fill="black"/>
</svg>

<svg width="24" height="24" fill="none" xmlns="http://www.w3.org/2000/svg"><path fill-rule="evenodd" clip-rule="evenodd" d="M2 4.5A2.5 2.5 0 0 1 4.5 2h15A2.5 2.5 0 0 1 22 4.5v10a2.5 2.5 0 0 1-2.5 2.5h-15A2.5 2.5 0 0 1 2 14.5v-10zm2.5-.75a.75.75 0 0 0-.75.75v10c0 .414.336.75.75.75h15a.75.75 0 0 0 .75-.75v-10a.75.75 0 0 0-.75-.75h-15zM4.5 21.5A2.5 2.5 0 0 1 2 19h1.75c0 .414.336.75.75.75h15a.75.75 0 0 0 .75-.75H22a2.5 2.5 0 0 1-2.5 2.5h-15z" fill="#000"/></svg>
